X: 8289
T: Cornerstone, The
R: jig
M: 6/8
K: Adorian
EAA ABc|edc BAG|EGG AGG|BcB AGD|
EAA ABc|edc Bcd|edc BAG|BAG A2:|
cde a2 a|baa bag|edB GBd|ged BAG|
[1 cde a2 a|baa bag|edc BAG|BAG A2:|
[2 EAA ABc|edc Bcd|edc BAG|BAG A2||

